; generated by PrusaSlicer 2.2.0+win64 on 2022-10-15 at 10:20:20 UTC

; 

; external perimeters extrusion width = 0.45mm
; perimeters extrusion width = 0.45mm
; infill extrusion width = 0.45mm
; solid infill extrusion width = 0.45mm
; top infill extrusion width = 0.40mm
; support material extrusion width = 0.40mm
; first layer extrusion width = 0.39mm

M73 P0 R39
M73 Q0 S38
M201 X1000 Y1000 Z1000 E5000 ; sets maximum accelerations, mm/sec^2
M203 X200 Y200 Z12 E120 ; sets maximum feedrates, mm/sec
M204 P1250 R1250 T1250 ; sets acceleration (P, T) and retract acceleration (R), mm/sec^2
M205 X5.00 Y5.00 Z0.40 E1.50 ; sets the jerk limits, mm/sec
M205 S0 T0 ; sets the minimum extruding and travel feed rate, mm/sec
M107
G28 Y0 X0 Z0  ;
M140 S60 ; set bed temp
M190 S60 ; wait for bed temp
M104 S210 ; set extruder temp
M109 S210 ; wait for extruder temp
M300 S1000 P500 ; chirp
G1 Y2 X0.0 F4000.0 ; go outside print area
G1 Z0.0 F300.0; 
G1 X120 E30.0  F1000.0 ; intro line
M73 Q0 S38
M73 P0 R39
G92 E0.0
G21 ; set units to millimeters
G90 ; use absolute coordinates
M82 ; use absolute distances for extrusion
G92 E0
; Filament gcode
G1 Z0.300 F13800.000
G1 E-5.50000 F2700.00000
G92 E0
G1 X72.360 Y91.164 F13800.000
G1 E5.50000 F2700.00000
G1 F1680.000
G1 X73.462 Y91.049 E5.54951
G1 X146.510 Y91.049 E8.81288
G1 X147.578 Y91.152 E8.86082
G1 X148.602 Y91.453 E8.90850
G1 X149.556 Y91.944 E8.95644
G1 X150.400 Y92.607 E9.00439
G1 X151.741 Y93.961 E9.08953
G1 X152.397 Y94.876 E9.13982
G1 X152.914 Y96.076 E9.19820
G1 X153.141 Y97.363 E9.25657
G1 X153.151 Y122.316 E10.37134
G1 X153.095 Y123.100 E10.40647
G1 X152.937 Y123.847 E10.44055
G1 X152.679 Y124.565 E10.47463
G1 X152.328 Y125.242 E10.50872
G1 X151.888 Y125.865 E10.54280
G1 X150.110 Y127.652 E10.65541
G1 X149.441 Y128.128 E10.69211
G1 X148.704 Y128.505 E10.72908
G1 X147.640 Y128.836 E10.77885
G1 X146.538 Y128.951 E10.82835
G1 X73.220 Y128.944 E14.10379
G1 X72.387 Y128.841 E14.14127
G1 X71.579 Y128.616 E14.17876
G1 X70.813 Y128.274 E14.21624
G1 X70.106 Y127.822 E14.25373
G1 X68.190 Y125.959 E14.37312
G1 X67.687 Y125.266 E14.41139
G1 X67.294 Y124.504 E14.44966
G1 X66.970 Y123.469 E14.49812
G1 X66.849 Y122.385 E14.54685
G1 X66.890 Y97.016 E15.68018
G1 X67.037 Y96.250 E15.71504
G1 X67.288 Y95.511 E15.74991
G1 X67.639 Y94.814 E15.78478
G1 X68.083 Y94.171 E15.81965
G1 X69.877 Y92.360 E15.93357
G1 X70.554 Y91.875 E15.97079
G1 X71.296 Y91.495 E16.00801
G1 X72.303 Y91.182 E16.05510
G1 X72.398 Y91.492 F13800.000
G1 F1680.000
G1 X73.469 Y91.374 E16.10325
G1 X146.510 Y91.374 E19.36629
G1 X147.513 Y91.471 E19.41131
G1 X148.485 Y91.756 E19.45657
G1 X149.386 Y92.221 E19.50184
G1 X150.182 Y92.848 E19.54711
G1 X151.488 Y94.167 E19.63005
G1 X152.108 Y95.025 E19.67735
G1 X152.604 Y96.174 E19.73325
G1 X152.817 Y97.402 E19.78890
G1 X152.776 Y123.032 E20.93391
G1 X152.384 Y124.427 E20.99866
G1 X151.631 Y125.665 E21.06341
G1 X149.903 Y127.400 E21.17277
G1 X149.263 Y127.855 E21.20789
G1 X148.557 Y128.214 E21.24326
G1 X147.567 Y128.519 E21.28954
G1 X146.531 Y128.626 E21.33608
G1 X73.239 Y128.619 E24.61032
G1 X72.454 Y128.523 E24.64569
G1 X71.685 Y128.308 E24.68131
G1 X70.963 Y127.985 E24.71668
G1 X70.292 Y127.554 E24.75231
G1 X68.437 Y125.747 E24.86799
G1 X67.956 Y125.082 E24.90463
G1 X67.586 Y124.357 E24.94102
G1 X67.285 Y123.384 E24.98654
G1 X67.175 Y122.376 E25.03181
G1 X67.211 Y97.070 E26.16234
G1 X67.349 Y96.343 E26.19543
G1 X67.587 Y95.641 E26.22851
G1 X67.919 Y94.979 E26.26160
G1 X68.344 Y94.366 E26.29494
G1 X70.088 Y92.608 E26.40556
G1 X70.737 Y92.145 E26.44119
G1 X71.443 Y91.786 E26.47656
G1 X72.341 Y91.510 E26.51852
G1 E21.01852 F2700.00000
G92 E0
G1 X77.679 Y122.479 F13800.000
G1 E5.50000 F2700.00000
G1 F1680.000
G1 X73.836 Y122.479 E5.67171
G1 X73.321 Y121.964 E5.70426
G1 X73.321 Y121.221 E5.73748
G1 X77.679 Y121.221 E5.93220
G1 X77.679 Y122.419 E5.98576
G1 E0.48576 F2700.00000
G92 E0
G1 X83.021 Y122.479 F13800.000
G1 E5.50000 F2700.00000
G1 F1680.000
G1 X83.021 Y121.221 E5.55623
G1 X84.421 Y121.221 E5.61878
G1 X84.421 Y107.579 E6.22819
G1 X73.321 Y107.579 E6.72408
G1 X73.321 Y98.036 E7.15043
G1 X73.836 Y97.521 E7.18298
G1 X146.164 Y97.521 E10.41421
G1 X146.679 Y98.036 E10.44675
G1 X146.679 Y121.964 E11.51574
G1 X146.164 Y122.479 E11.54829
G1 X83.081 Y122.479 E14.36651
G1 E8.86651 F2700.00000
G92 E0
G1 X78.005 Y122.195 F13800.000
G1 E5.50000 F2700.00000
G1 F1680.000
G1 X82.695 Y122.195 E5.70952
G1 X82.695 Y120.895 E5.76760
G1 X84.095 Y120.895 E5.83014
G1 X84.095 Y107.905 E6.41046
G1 X72.995 Y107.905 E6.90635
G1 X72.995 Y97.901 E7.35328
G1 X73.701 Y97.195 E7.39787
G1 X146.299 Y97.195 E10.64115
G1 X147.005 Y97.901 E10.68575
G1 X147.005 Y122.099 E11.76679
G1 X146.299 Y122.805 E11.81139
G1 X73.701 Y122.805 E15.05467
G1 X72.995 Y122.099 E15.09927
G1 X72.995 Y120.895 E15.15306
G1 X78.005 Y120.895 E15.37688
G1 X78.005 Y122.135 E15.43227
G1 X78.175 Y122.557 F13800.000
G1 X77.842 Y122.500
G1 F1680.000
G1 X82.858 Y122.500 E15.62797
G1 X83.795 Y122.365 F13800.000
G1 F1680.000
G1 X83.281 Y121.852 E15.66053
G1 X83.281 Y121.481 E15.67713
G1 X83.372 Y121.481 E15.68123
G1 X84.110 Y122.219 E15.72799
G1 X84.572 Y122.219 E15.74869
G1 X83.834 Y121.481 E15.79545
G1 X84.296 Y121.481 E15.81616
G1 X85.034 Y122.219 E15.86292
G1 X85.496 Y122.219 E15.88362
G1 X84.681 Y121.404 E15.93527
G1 X84.681 Y120.942 E15.95598
G1 X85.958 Y122.219 E16.03691
G1 X86.420 Y122.219 E16.05761
G1 X84.681 Y120.480 E16.16782
G1 X84.681 Y120.018 E16.18852
G1 X86.882 Y122.219 E16.32801
G1 X87.344 Y122.219 E16.34871
G1 X84.681 Y119.556 E16.51747
G1 X84.681 Y119.094 E16.53817
G1 X87.806 Y122.219 E16.73621
G1 X88.268 Y122.219 E16.75691
G1 X84.681 Y118.632 E16.98423
G1 X84.681 Y118.170 E17.00493
G1 X88.730 Y122.219 E17.26152
G1 X89.192 Y122.219 E17.28222
G1 X84.681 Y117.708 E17.56809
G1 X84.681 Y117.246 E17.58879
G1 X89.654 Y122.219 E17.90394
G1 X90.116 Y122.219 E17.92464
G1 X84.681 Y116.784 E18.26906
G1 X84.681 Y116.323 E18.28977
G1 X90.577 Y122.219 E18.66346
G1 X91.039 Y122.219 E18.68417
G1 X84.681 Y115.861 E19.08714
G1 X84.681 Y115.399 E19.10784
G1 X91.501 Y122.219 E19.54010
G1 X91.963 Y122.219 E19.56080
G1 X84.681 Y114.937 E20.02233
G1 X84.681 Y114.475 E20.04303
G1 X92.425 Y122.219 E20.53384
G1 X92.887 Y122.219 E20.55454
G1 X84.681 Y114.013 E21.07462
G1 X84.681 Y113.551 E21.09532
G1 X93.349 Y122.219 E21.64468
G1 X93.811 Y122.219 E21.66538
G1 X84.681 Y113.089 E22.24402
G1 X84.681 Y112.627 E22.26472
G1 X94.273 Y122.219 E22.87263
G1 X94.735 Y122.219 E22.89333
G1 X84.681 Y112.165 E23.53052
G1 X84.681 Y111.703 E23.55123
G1 X95.197 Y122.219 E24.21769
G1 X95.659 Y122.219 E24.23839
G1 X84.681 Y111.241 E24.93414
G1 X84.681 Y110.779 E24.95484
G1 X96.121 Y122.219 E25.67986
G1 X96.583 Y122.219 E25.70056
G1 X84.681 Y110.317 E26.45486
G1 X84.681 Y109.855 E26.47556
G1 X97.045 Y122.219 E27.25913
G1 X97.507 Y122.219 E27.27983
G1 X84.681 Y109.393 E28.09268
G1 X84.681 Y108.931 E28.11338
G1 X97.969 Y122.219 E28.95551
G1 X98.430 Y122.219 E28.97621
G1 X84.681 Y108.469 E29.84761
G1 X84.681 Y108.008 E29.86832
G1 X99.039 Y122.365 E30.77828
G1 E25.27828 F2700.00000
G92 E0
G1 X77.565 Y122.017 F13800.000
G1 E5.50000 F2700.00000
G1 F1680.000
G1 X77.029 Y121.481 E5.53509
G1 X76.552 Y121.481 E5.55715
G1 X77.290 Y122.219 E5.60543
G1 X76.813 Y122.219 E5.62749
G1 X76.075 Y121.481 E5.67577
G1 X75.598 Y121.481 E5.69783
G1 X76.336 Y122.219 E5.74610
G1 X75.859 Y122.219 E5.76817
G1 X75.122 Y121.481 E5.81644
G1 X74.645 Y121.481 E5.83851
G1 X75.382 Y122.219 E5.88678
G1 X74.906 Y122.219 E5.90884
G1 X74.168 Y121.481 E5.95712
G1 X73.691 Y121.481 E5.97918
G1 X74.429 Y122.219 E6.02746
G1 X73.952 Y122.219 E6.04952
G1 X73.435 Y121.702 E6.08336
G1 E0.58336 F2700.00000
G92 E0
G1 X73.976 Y107.465 F13800.000
G1 E5.50000 F2700.00000
G1 F1680.000
G1 X73.581 Y107.070 E5.52504
G1 X73.581 Y106.608 E5.54575
G1 X74.292 Y107.319 E5.59078
G1 X74.754 Y107.319 E5.61148
G1 X73.581 Y106.146 E5.68579
G1 X73.581 Y105.684 E5.70650
G1 X75.216 Y107.319 E5.81008
G1 X75.677 Y107.319 E5.83079
G1 X73.581 Y105.223 E5.96365
G1 X73.581 Y104.761 E5.98435
G1 X76.139 Y107.319 E6.14649
G1 X76.601 Y107.319 E6.16719
G1 X73.581 Y104.299 E6.35861
G1 X73.581 Y103.837 E6.37931
G1 X77.063 Y107.319 E6.60001
G1 X77.525 Y107.319 E6.62071
G1 X73.581 Y103.375 E6.87068
G1 X73.581 Y102.913 E6.89138
G1 X77.987 Y107.319 E7.17063
G1 X78.449 Y107.319 E7.19133
G1 X73.581 Y102.451 E7.49986
G1 X73.581 Y101.989 E7.52056
G1 X78.911 Y107.319 E7.85836
G1 X79.373 Y107.319 E7.87906
G1 X73.581 Y101.527 E8.24614
G1 X73.581 Y101.065 E8.26684
G1 X79.835 Y107.319 E8.66320
G1 X80.297 Y107.319 E8.68390
G1 X73.581 Y100.603 E9.10953
G1 X73.581 Y100.141 E9.13023
G1 X80.759 Y107.319 E9.58514
G1 X81.221 Y107.319 E9.60584
G1 X73.581 Y99.679 E10.09003
G1 X73.581 Y99.217 E10.11073
G1 X81.683 Y107.319 E10.62419
G1 X82.145 Y107.319 E10.64489
G1 X73.581 Y98.755 E11.18763
G1 X73.581 Y98.293 E11.20833
G1 X82.607 Y107.319 E11.78035
G1 X83.069 Y107.319 E11.80105
G1 X73.737 Y97.988 E12.39245
G1 X73.944 Y97.781 E12.40553
G1 X73.993 Y97.781 E12.40773
G1 X83.530 Y107.319 E13.01221
G1 X83.992 Y107.319 E13.03292
G1 X74.455 Y97.781 E13.63740
G1 X74.917 Y97.781 E13.65810
G1 X99.354 Y122.219 E15.20691
G1 X99.816 Y122.219 E15.22761
G1 X75.379 Y97.781 E16.77642
M73 P2 R38
G1 X75.840 Y97.781 E16.79712
G1 X100.278 Y122.219 E18.34593
M73 Q2 S37
G1 X100.740 Y122.219 E18.36663
G1 X76.302 Y97.781 E19.91543
G1 X76.764 Y97.781 E19.93614
G1 X101.202 Y122.219 E21.48494
G1 X101.664 Y122.219 E21.50564
G1 X77.226 Y97.781 E23.05445
G1 X77.688 Y97.781 E23.07515
G1 X102.126 Y122.219 E24.62396
G1 X102.588 Y122.219 E24.64466
G1 X78.150 Y97.781 E26.19347
G1 X78.612 Y97.781 E26.21417
G1 X103.050 Y122.219 E27.76298
G1 X103.512 Y122.219 E27.78368
G1 X79.074 Y97.781 E29.33249
G1 X79.536 Y97.781 E29.35319
G1 X103.974 Y122.219 E30.90200
G1 X104.436 Y122.219 E30.92270
G1 X79.998 Y97.781 E32.47151
G1 X80.460 Y97.781 E32.49221
G1 X104.898 Y122.219 E34.04101
G1 X105.360 Y122.219 E34.06172
G1 X80.922 Y97.781 E35.61052
G1 X81.384 Y97.781 E35.63123
G1 X105.822 Y122.219 E37.18003
G1 X106.284 Y122.219 E37.20073
G1 X81.846 Y97.781 E38.74954
G1 X82.308 Y97.781 E38.77024
G1 X106.745 Y122.219 E40.31905
G1 X107.207 Y122.219 E40.33975
G1 X82.770 Y97.781 E41.88856
G1 X83.232 Y97.781 E41.90926
G1 X107.669 Y122.219 E43.45807
G1 X108.131 Y122.219 E43.47877
G1 X83.693 Y97.781 E45.02758
G1 X84.155 Y97.781 E45.04828
G1 X108.593 Y122.219 E46.59709
G1 X109.055 Y122.219 E46.61779
G1 X84.617 Y97.781 E48.16659
G1 X85.079 Y97.781 E48.18730
G1 X109.517 Y122.219 E49.73610
G1 X109.979 Y122.219 E49.75681
G1 X85.541 Y97.781 E51.30561
G1 X86.003 Y97.781 E51.32631
G1 X110.441 Y122.219 E52.87512
G1 X110.903 Y122.219 E52.89582
G1 X86.465 Y97.781 E54.44463
G1 X86.927 Y97.781 E54.46533
G1 X111.365 Y122.219 E56.01414
G1 X111.827 Y122.219 E56.03484
G1 X87.389 Y97.781 E57.58365
G1 X87.851 Y97.781 E57.60435
G1 X112.289 Y122.219 E59.15316
G1 X112.751 Y122.219 E59.17386
G1 X88.313 Y97.781 E60.72267
G1 X88.775 Y97.781 E60.74337
G1 X113.213 Y122.219 E62.29218
G1 X113.675 Y122.219 E62.31288
G1 X89.237 Y97.781 E63.86168
G1 X89.699 Y97.781 E63.88239
G1 X114.137 Y122.219 E65.43119
G1 X114.598 Y122.219 E65.45189
G1 X90.161 Y97.781 E67.00070
G1 X90.623 Y97.781 E67.02140
G1 X115.060 Y122.219 E68.57021
G1 X115.522 Y122.219 E68.59091
G1 X91.085 Y97.781 E70.13972
G1 X91.546 Y97.781 E70.16042
G1 X115.984 Y122.219 E71.70923
G1 X116.446 Y122.219 E71.72993
G1 X92.008 Y97.781 E73.27874
G1 X92.470 Y97.781 E73.29944
G1 X116.908 Y122.219 E74.84825
G1 X117.370 Y122.219 E74.86895
G1 X92.932 Y97.781 E76.41776
G1 X93.394 Y97.781 E76.43846
G1 X117.832 Y122.219 E77.98726
G1 X118.294 Y122.219 E78.00797
G1 X93.856 Y97.781 E79.55677
G1 X94.318 Y97.781 E79.57747
G1 X118.756 Y122.219 E81.12628
G1 X119.218 Y122.219 E81.14698
G1 X94.780 Y97.781 E82.69579
G1 X95.242 Y97.781 E82.71649
G1 X119.680 Y122.219 E84.26530
G1 X120.142 Y122.219 E84.28600
G1 X95.704 Y97.781 E85.83481
G1 X96.166 Y97.781 E85.85551
G1 X120.604 Y122.219 E87.40432
G1 X121.066 Y122.219 E87.42502
G1 X96.628 Y97.781 E88.97383
G1 X97.090 Y97.781 E88.99453
G1 X121.528 Y122.219 E90.54334
M73 P5 R37
G1 X121.990 Y122.219 E90.56404
G1 X97.552 Y97.781 E92.11284
G1 X98.014 Y97.781 E92.13355
G1 X122.451 Y122.219 E93.68235
M73 Q5 S36
G1 X122.913 Y122.219 E93.70305
G1 X98.476 Y97.781 E95.25186
G1 X98.938 Y97.781 E95.27256
G1 X123.375 Y122.219 E96.82137
G1 X123.837 Y122.219 E96.84207
G1 X99.399 Y97.781 E98.39088
G1 X99.861 Y97.781 E98.41158
G1 X124.299 Y122.219 E99.96039
G1 X124.761 Y122.219 E99.98109
G1 X100.323 Y97.781 E101.52990
G1 X100.785 Y97.781 E101.55060
G1 X125.223 Y122.219 E103.09941
G1 X125.685 Y122.219 E103.12011
G1 X101.247 Y97.781 E104.66892
G1 X101.709 Y97.781 E104.68962
G1 X126.147 Y122.219 E106.23842
G1 X126.609 Y122.219 E106.25913
G1 X102.171 Y97.781 E107.80793
G1 X102.633 Y97.781 E107.82864
G1 X127.071 Y122.219 E109.37744
G1 X127.533 Y122.219 E109.39814
G1 X103.095 Y97.781 E110.94695
G1 X103.557 Y97.781 E110.96765
G1 X127.995 Y122.219 E112.51646
G1 X128.457 Y122.219 E112.53716
G1 X104.019 Y97.781 E114.08597
G1 X104.481 Y97.781 E114.10667
G1 X128.919 Y122.219 E115.65548
G1 X129.381 Y122.219 E115.67618
G1 X104.943 Y97.781 E117.22499
G1 X105.405 Y97.781 E117.24569
G1 X129.843 Y122.219 E118.79450
G1 X130.304 Y122.219 E118.81520
G1 X105.867 Y97.781 E120.36400
G1 X106.329 Y97.781 E120.38471
G1 X130.766 Y122.219 E121.93351
G1 X131.228 Y122.219 E121.95422
G1 X106.791 Y97.781 E123.50302
G1 X107.252 Y97.781 E123.52372
G1 X131.690 Y122.219 E125.07253
G1 X132.152 Y122.219 E125.09323
G1 X107.714 Y97.781 E126.64204
G1 X108.176 Y97.781 E126.66274
G1 X132.614 Y122.219 E128.21155
G1 X133.076 Y122.219 E128.23225
G1 X108.638 Y97.781 E129.78106
G1 X109.100 Y97.781 E129.80176
G1 X133.538 Y122.219 E131.35057
G1 X134.000 Y122.219 E131.37127
G1 X109.562 Y97.781 E132.92008
G1 X110.024 Y97.781 E132.94078
G1 X134.462 Y122.219 E134.48958
G1 X134.924 Y122.219 E134.51029
G1 X110.486 Y97.781 E136.05909
G1 X110.948 Y97.781 E136.07980
G1 X135.386 Y122.219 E137.62860
G1 X135.848 Y122.219 E137.64930
G1 X111.410 Y97.781 E139.19811
G1 X111.872 Y97.781 E139.21881
G1 X136.310 Y122.219 E140.76762
G1 X136.772 Y122.219 E140.78832
G1 X112.334 Y97.781 E142.33713
G1 X112.796 Y97.781 E142.35783
G1 X137.234 Y122.219 E143.90664
G1 X137.696 Y122.219 E143.92734
G1 X113.258 Y97.781 E145.47615
G1 X113.720 Y97.781 E145.49685
G1 X138.157 Y122.219 E147.04566
G1 X138.619 Y122.219 E147.06636
G1 X114.182 Y97.781 E148.61517
G1 X114.644 Y97.781 E148.63587
G1 X139.081 Y122.219 E150.18467
G1 X139.543 Y122.219 E150.20538
G1 X115.105 Y97.781 E151.75418
G1 X115.567 Y97.781 E151.77489
G1 X140.005 Y122.219 E153.32369
G1 X140.467 Y122.219 E153.34439
G1 X116.029 Y97.781 E154.89320
G1 X116.491 Y97.781 E154.91390
G1 X140.929 Y122.219 E156.46271
G1 X141.391 Y122.219 E156.48341
G1 X116.953 Y97.781 E158.03222
G1 X117.415 Y97.781 E158.05292
G1 X141.853 Y122.219 E159.60173
G1 X142.315 Y122.219 E159.62243
G1 X117.877 Y97.781 E161.17124
G1 X118.339 Y97.781 E161.19194
G1 X142.777 Y122.219 E162.74075
G1 X143.239 Y122.219 E162.76145
G1 X118.801 Y97.781 E164.31025
M73 P8 R36
G1 X119.263 Y97.781 E164.33096
G1 X143.701 Y122.219 E165.87976
G1 X144.163 Y122.219 E165.90047
G1 X119.725 Y97.781 E167.44927
G1 X120.187 Y97.781 E167.46997
G1 X144.625 Y122.219 E169.01878
M73 Q8 S35
G1 X145.087 Y122.219 E169.03948
G1 X120.649 Y97.781 E170.58829
G1 X121.111 Y97.781 E170.60899
G1 X145.549 Y122.219 E172.15780
G1 X146.010 Y122.219 E172.17850
G1 X121.573 Y97.781 E173.72731
G1 X122.035 Y97.781 E173.74801
G1 X146.264 Y122.011 E175.28363
G1 X146.419 Y121.856 E175.29343
G1 X146.419 Y121.703 E175.30028
G1 X122.497 Y97.781 E176.81642
G1 X122.958 Y97.781 E176.83712
G1 X146.419 Y121.242 E178.32398
G1 X146.419 Y120.780 E178.34468
G1 X123.420 Y97.781 E179.80227
G1 X123.882 Y97.781 E179.82297
G1 X146.419 Y120.318 E181.25128
G1 X146.419 Y119.856 E181.27198
G1 X124.344 Y97.781 E182.67101
G1 X124.806 Y97.781 E182.69171
G1 X146.419 Y119.394 E184.06147
G1 X146.419 Y118.932 E184.08217
G1 X125.268 Y97.781 E185.42265
G1 X125.730 Y97.781 E185.44335
G1 X146.419 Y118.470 E186.75455
