; generated by PrusaSlicer 2.2.0+win64 on 2022-10-14 at 15:12:07 UTC

; 

; external perimeters extrusion width = 0.45mm
; perimeters extrusion width = 0.45mm
; infill extrusion width = 0.45mm
; solid infill extrusion width = 0.45mm
; top infill extrusion width = 0.40mm
; support material extrusion width = 0.40mm
; first layer extrusion width = 0.39mm

M73 P0 R76
M73 Q0 S72
M201 X1000 Y1000 Z1000 E5000 ; sets maximum accelerations, mm/sec^2
M203 X200 Y200 Z12 E120 ; sets maximum feedrates, mm/sec
M204 P1250 R1250 T1250 ; sets acceleration (P, T) and retract acceleration (R), mm/sec^2
M205 X5.00 Y5.00 Z0.40 E1.50 ; sets the jerk limits, mm/sec
M205 S0 T0 ; sets the minimum extruding and travel feed rate, mm/sec
M107
G28 Y0 X0 Z0  ;
M140 S60 ; set bed temp
M190 S60 ; wait for bed temp
M104 S210 ; set extruder temp
M109 S210 ; wait for extruder temp
M300 S1000 P500 ; chirp
G1 Y2 X0.0 F4000.0 ; go outside print area
G1 Z0.0 F300.0; 
G1 X120 E30.0  F1000.0 ; intro line
M73 Q0 S72
M73 P0 R75
G92 E0.0
G21 ; set units to millimeters
G90 ; use absolute coordinates
M82 ; use absolute distances for extrusion
G92 E0
; Filament gcode
G1 Z0.300 F13800.000
G1 E-5.50000 F2700.00000
G92 E0
G1 X67.102 Y68.236 F13800.000
G1 E5.50000 F2700.00000
G1 F1680.000
G1 X67.673 Y66.925 E5.56385
G1 X68.374 Y65.986 E5.61623
G1 X69.996 Y64.407 E5.71734
G1 X70.765 Y63.890 E5.75875
G1 X71.614 Y63.503 E5.80042
G1 X72.509 Y63.262 E5.84183
G1 X73.431 Y63.171 E5.88324
G1 X146.538 Y63.170 E9.14923
G1 X147.612 Y63.275 E9.19743
G1 X148.641 Y63.579 E9.24537
G1 X149.594 Y64.072 E9.29332
G1 X150.437 Y64.736 E9.34126
G1 X151.777 Y66.092 E9.42640
G1 X152.431 Y67.008 E9.47669
G1 X152.947 Y68.215 E9.53533
G1 X153.171 Y69.514 E9.59423
G1 X153.143 Y122.609 E11.96623
G1 X152.898 Y123.976 E12.02825
G1 X152.325 Y125.247 E12.09054
G1 X151.642 Y126.149 E12.14109
G1 X150.032 Y127.715 E12.24142
G1 X149.263 Y128.232 E12.28283
G1 X148.414 Y128.619 E12.32450
G1 X147.519 Y128.859 E12.36591
G1 X146.597 Y128.950 E12.40731
G1 X73.367 Y128.950 E15.67882
G1 X71.948 Y128.735 E15.74292
G1 X70.624 Y128.167 E15.80729
G1 X69.668 Y127.458 E15.86046
G1 X68.085 Y125.832 E15.96182
G1 X67.571 Y125.068 E16.00297
G1 X67.187 Y124.231 E16.04412
G1 X66.945 Y123.342 E16.08526
G1 X66.850 Y122.426 E16.12641
G1 X66.879 Y69.642 E18.48451
G1 X67.093 Y68.295 E18.54542
G1 X67.413 Y68.346 F13800.000
G1 F1680.000
G1 X67.964 Y67.072 E18.60744
G1 X68.625 Y66.194 E18.65651
G1 X70.213 Y64.650 E18.75547
G1 X70.937 Y64.166 E18.79440
G1 X71.731 Y63.807 E18.83332
G1 X72.573 Y63.582 E18.87225
G1 X73.440 Y63.497 E18.91117
G1 X146.538 Y63.496 E22.17676
G1 X147.546 Y63.594 E22.22203
G1 X148.523 Y63.882 E22.26755
G1 X149.423 Y64.349 E22.31282
G1 X150.218 Y64.978 E22.35809
G1 X151.524 Y66.297 E22.44103
G1 X152.144 Y67.162 E22.48858
G1 X152.636 Y68.312 E22.54448
G1 X152.846 Y69.546 E22.60039
G1 X152.818 Y122.583 E24.96978
G1 X152.585 Y123.887 E25.02897
G1 X152.037 Y125.093 E25.08816
G1 X151.391 Y125.940 E25.13571
G1 X149.815 Y127.472 E25.23391
G1 X149.090 Y127.956 E25.27283
G1 X148.297 Y128.315 E25.31176
G1 X147.449 Y128.541 E25.35094
G1 X146.582 Y128.625 E25.38986
G1 X73.376 Y128.624 E28.66029
G1 X72.027 Y128.419 E28.72125
G1 X70.770 Y127.875 E28.78246
G1 X69.876 Y127.207 E28.83229
G1 X68.328 Y125.615 E28.93149
G1 X67.847 Y124.895 E28.97016
G1 X67.489 Y124.107 E29.00883
G1 X67.263 Y123.272 E29.04751
G1 X67.175 Y122.410 E29.08618
G1 X67.205 Y69.653 E31.44310
G1 X67.404 Y68.406 E31.49952
G1 E25.99952 F2700.00000
G92 E0
G1 X73.348 Y93.342 F13800.000
G1 E5.50000 F2700.00000
G1 F1680.000
G1 X77.707 Y93.342 E5.69472
G1 X77.707 Y94.601 E5.75096
G1 X73.864 Y94.601 E5.92267
G1 X73.348 Y94.086 E5.95522
G1 X73.348 Y93.402 E5.98576
G1 E0.48576 F2700.00000
G92 E0
G1 X83.048 Y93.342 F13800.000
G1 E5.50000 F2700.00000
G1 F1680.000
G1 X84.448 Y93.342 E5.56254
G1 X84.448 Y79.701 E6.17196
G1 X73.348 Y79.701 E6.66784
G1 X73.348 Y70.157 E7.09420
G1 X73.864 Y69.642 E7.12674
G1 X146.192 Y69.642 E10.35797
G1 X146.707 Y70.157 E10.39052
G1 X146.707 Y94.086 E11.45951
G1 X146.192 Y94.601 E11.49205
G1 X83.048 Y94.601 E14.31296
G1 X83.048 Y93.402 E14.36651
G1 E8.86651 F2700.00000
G92 E0
G1 X78.033 Y94.317 F13800.000
G1 E5.50000 F2700.00000
G1 F1680.000
G1 X82.723 Y94.317 E5.70952
G1 X82.723 Y93.017 E5.76760
G1 X84.123 Y93.017 E5.83014
G1 X84.123 Y80.027 E6.41046
G1 X73.023 Y80.027 E6.90635
G1 X73.023 Y70.023 E7.35328
G1 X73.729 Y69.317 E7.39787
G1 X146.327 Y69.317 E10.64115
G1 X147.033 Y70.023 E10.68575
G1 X147.033 Y94.221 E11.76679
G1 X146.327 Y94.927 E11.81139
G1 X73.729 Y94.927 E15.05467
G1 X73.023 Y94.221 E15.09927
G1 X73.023 Y93.017 E15.15306
G1 X78.033 Y93.017 E15.37688
G1 X78.033 Y94.257 E15.43227
G1 X78.203 Y94.679 F13800.000
G1 X77.870 Y94.622
G1 F1680.000
G1 X82.886 Y94.622 E15.62797
G1 X83.823 Y94.487 F13800.000
G1 F1680.000
G1 X83.309 Y93.973 E15.66053
G1 X83.309 Y93.603 E15.67713
G1 X83.400 Y93.603 E15.68123
G1 X84.138 Y94.341 E15.72799
G1 X84.600 Y94.341 E15.74869
G1 X83.862 Y93.603 E15.79545
G1 X84.324 Y93.603 E15.81616
G1 X85.062 Y94.341 E15.86292
G1 X85.524 Y94.341 E15.88362
G1 X84.709 Y93.526 E15.93527
G1 X84.709 Y93.064 E15.95598
G1 X85.986 Y94.341 E16.03691
G1 X86.448 Y94.341 E16.05761
G1 X84.709 Y92.602 E16.16782
G1 X84.709 Y92.140 E16.18852
G1 X86.910 Y94.341 E16.32801
G1 X87.372 Y94.341 E16.34871
G1 X84.709 Y91.678 E16.51747
G1 X84.709 Y91.216 E16.53817
G1 X87.834 Y94.341 E16.73621
G1 X88.296 Y94.341 E16.75691
G1 X84.709 Y90.754 E16.98423
G1 X84.709 Y90.292 E17.00493
G1 X88.758 Y94.341 E17.26152
G1 X89.219 Y94.341 E17.28222
G1 X84.709 Y89.830 E17.56809
G1 X84.709 Y89.368 E17.58879
G1 X89.681 Y94.341 E17.90394
G1 X90.143 Y94.341 E17.92464
G1 X84.709 Y88.906 E18.26906
G1 X84.709 Y88.444 E18.28977
G1 X90.605 Y94.341 E18.66346
G1 X91.067 Y94.341 E18.68417
G1 X84.709 Y87.982 E19.08714
G1 X84.709 Y87.520 E19.10784
G1 X91.529 Y94.341 E19.54010
G1 X91.991 Y94.341 E19.56080
G1 X84.709 Y87.058 E20.02233
G1 X84.709 Y86.596 E20.04303
G1 X92.453 Y94.341 E20.53384
G1 X92.915 Y94.341 E20.55454
G1 X84.709 Y86.135 E21.07462
G1 X84.709 Y85.673 E21.09532
G1 X93.377 Y94.341 E21.64468
G1 X93.839 Y94.341 E21.66538
G1 X84.709 Y85.211 E22.24402
G1 X84.709 Y84.749 E22.26472
G1 X94.301 Y94.341 E22.87263
G1 X94.763 Y94.341 E22.89333
G1 X84.709 Y84.287 E23.53052
G1 X84.709 Y83.825 E23.55123
G1 X95.225 Y94.341 E24.21769
G1 X95.687 Y94.341 E24.23839
G1 X84.709 Y83.363 E24.93414
G1 X84.709 Y82.901 E24.95484
G1 X96.149 Y94.341 E25.67986
G1 X96.611 Y94.341 E25.70056
G1 X84.709 Y82.439 E26.45486
G1 X84.709 Y81.977 E26.47556
G1 X97.072 Y94.341 E27.25913
G1 X97.534 Y94.341 E27.27983
G1 X84.709 Y81.515 E28.09268
G1 X84.709 Y81.053 E28.11338
G1 X97.996 Y94.341 E28.95551
G1 X98.458 Y94.341 E28.97621
G1 X84.709 Y80.591 E29.84761
G1 X84.709 Y80.129 E29.86832
G1 X99.067 Y94.487 E30.77828
G1 E25.27828 F2700.00000
G92 E0
G1 X77.593 Y94.139 F13800.000
G1 E5.50000 F2700.00000
G1 F1680.000
G1 X77.057 Y93.603 E5.53509
G1 X76.580 Y93.603 E5.55715
G1 X77.318 Y94.341 E5.60543
G1 X76.841 Y94.341 E5.62749
G1 X76.103 Y93.603 E5.67577
G1 X75.626 Y93.603 E5.69783
G1 X76.364 Y94.341 E5.74610
G1 X75.887 Y94.341 E5.76817
G1 X75.149 Y93.603 E5.81644
G1 X74.672 Y93.603 E5.83851
G1 X75.410 Y94.341 E5.88678
G1 X74.933 Y94.341 E5.90884
G1 X74.196 Y93.603 E5.95712
G1 X73.719 Y93.603 E5.97918
G1 X74.456 Y94.341 E6.02746
G1 X73.980 Y94.341 E6.04952
G1 X73.462 Y93.823 E6.08336
G1 E0.58336 F2700.00000
G92 E0
G1 X74.004 Y79.587 F13800.000
G1 E5.50000 F2700.00000
G1 F1680.000
G1 X73.609 Y79.192 E5.52504
G1 X73.609 Y78.730 E5.54575
G1 X74.319 Y79.441 E5.59078
G1 X74.781 Y79.441 E5.61148
G1 X73.609 Y78.268 E5.68579
G1 X73.609 Y77.806 E5.70650
G1 X75.243 Y79.441 E5.81008
G1 X75.705 Y79.441 E5.83079
G1 X73.609 Y77.344 E5.96365
G1 X73.609 Y76.882 E5.98435
G1 X76.167 Y79.441 E6.14649
G1 X76.629 Y79.441 E6.16719
G1 X73.609 Y76.420 E6.35861
G1 X73.609 Y75.958 E6.37931
G1 X77.091 Y79.441 E6.60001
G1 X77.553 Y79.441 E6.62071
G1 X73.609 Y75.496 E6.87068
G1 X73.609 Y75.035 E6.89138
G1 X78.015 Y79.441 E7.17063
G1 X78.477 Y79.441 E7.19133
G1 X73.609 Y74.573 E7.49986
G1 X73.609 Y74.111 E7.52056
G1 X78.939 Y79.441 E7.85836
G1 X79.401 Y79.441 E7.87906
G1 X73.609 Y73.649 E8.24614
G1 X73.609 Y73.187 E8.26684
G1 X79.863 Y79.441 E8.66320
G1 X80.325 Y79.441 E8.68390
G1 X73.609 Y72.725 E9.10953
G1 X73.609 Y72.263 E9.13023
G1 X80.787 Y79.441 E9.58514
G1 X81.249 Y79.441 E9.60584
G1 X73.609 Y71.801 E10.09003
G1 X73.609 Y71.339 E10.11073
G1 X81.711 Y79.441 E10.62419
G1 X82.172 Y79.441 E10.64489
G1 X73.609 Y70.877 E11.18763
G1 X73.609 Y70.415 E11.20833
G1 X82.634 Y79.441 E11.78035
M73 P1 R74
G1 X83.096 Y79.441 E11.80105
G1 X73.765 Y70.109 E12.39245
G1 X73.971 Y69.903 E12.40553
G1 X74.020 Y69.903 E12.40773
G1 X83.558 Y79.441 E13.01221
G1 X84.020 Y79.441 E13.03292
G1 X74.482 Y69.903 E13.63740
M73 Q1 S71
G1 X74.944 Y69.903 E13.65810
G1 X99.382 Y94.341 E15.20691
G1 X99.844 Y94.341 E15.22761
G1 X75.406 Y69.903 E16.77642
G1 X75.868 Y69.903 E16.79712
G1 X100.306 Y94.341 E18.34593
G1 X100.768 Y94.341 E18.36663
G1 X76.330 Y69.903 E19.91543
G1 X76.792 Y69.903 E19.93614
G1 X101.230 Y94.341 E21.48494
G1 X101.692 Y94.341 E21.50564
G1 X77.254 Y69.903 E23.05445
G1 X77.716 Y69.903 E23.07515
G1 X102.154 Y94.341 E24.62396
G1 X102.616 Y94.341 E24.64466
G1 X78.178 Y69.903 E26.19347
G1 X78.640 Y69.903 E26.21417
G1 X103.078 Y94.341 E27.76298
G1 X103.540 Y94.341 E27.78368
G1 X79.102 Y69.903 E29.33249
G1 X79.564 Y69.903 E29.35319
G1 X104.002 Y94.341 E30.90200
G1 X104.464 Y94.341 E30.92270
G1 X80.026 Y69.903 E32.47151
G1 X80.488 Y69.903 E32.49221
G1 X104.925 Y94.341 E34.04101
G1 X105.387 Y94.341 E34.06172
G1 X80.950 Y69.903 E35.61052
G1 X81.412 Y69.903 E35.63123
G1 X105.849 Y94.341 E37.18003
G1 X106.311 Y94.341 E37.20073
G1 X81.873 Y69.903 E38.74954
G1 X82.335 Y69.903 E38.77024
G1 X106.773 Y94.341 E40.31905
G1 X107.235 Y94.341 E40.33975
G1 X82.797 Y69.903 E41.88856
G1 X83.259 Y69.903 E41.90926
G1 X107.697 Y94.341 E43.45807
G1 X108.159 Y94.341 E43.47877
G1 X83.721 Y69.903 E45.02758
G1 X84.183 Y69.903 E45.04828
G1 X108.621 Y94.341 E46.59709
G1 X109.083 Y94.341 E46.61779
G1 X84.645 Y69.903 E48.16659
G1 X85.107 Y69.903 E48.18730
G1 X109.545 Y94.341 E49.73610
G1 X110.007 Y94.341 E49.75681
G1 X85.569 Y69.903 E51.30561
G1 X86.031 Y69.903 E51.32631
G1 X110.469 Y94.341 E52.87512
G1 X110.931 Y94.341 E52.89582
G1 X86.493 Y69.903 E54.44463
G1 X86.955 Y69.903 E54.46533
G1 X111.393 Y94.341 E56.01414
G1 X111.855 Y94.341 E56.03484
G1 X87.417 Y69.903 E57.58365
G1 X87.879 Y69.903 E57.60435
G1 X112.317 Y94.341 E59.15316
G1 X112.778 Y94.341 E59.17386
G1 X88.341 Y69.903 E60.72267
G1 X88.803 Y69.903 E60.74337
G1 X113.240 Y94.341 E62.29218
G1 X113.702 Y94.341 E62.31288
G1 X89.265 Y69.903 E63.86168
G1 X89.726 Y69.903 E63.88239
G1 X114.164 Y94.341 E65.43119
G1 X114.626 Y94.341 E65.45189
G1 X90.188 Y69.903 E67.00070
G1 X90.650 Y69.903 E67.02140
G1 X115.088 Y94.341 E68.57021
G1 X115.550 Y94.341 E68.59091
G1 X91.112 Y69.903 E70.13972
G1 X91.574 Y69.903 E70.16042
G1 X116.012 Y94.341 E71.70923
G1 X116.474 Y94.341 E71.72993
G1 X92.036 Y69.903 E73.27874
G1 X92.498 Y69.903 E73.29944
G1 X116.936 Y94.341 E74.84825
G1 X117.398 Y94.341 E74.86895
G1 X92.960 Y69.903 E76.41776
G1 X93.422 Y69.903 E76.43846
G1 X117.860 Y94.341 E77.98726
G1 X118.322 Y94.341 E78.00797
G1 X93.884 Y69.903 E79.55677
G1 X94.346 Y69.903 E79.57747
G1 X118.784 Y94.341 E81.12628
G1 X119.246 Y94.341 E81.14698
G1 X94.808 Y69.903 E82.69579
G1 X95.270 Y69.903 E82.71649
G1 X119.708 Y94.341 E84.26530
G1 X120.170 Y94.341 E84.28600
G1 X95.732 Y69.903 E85.83481
M73 P2 R73
G1 X96.194 Y69.903 E85.85551
G1 X120.631 Y94.341 E87.40432
G1 X121.093 Y94.341 E87.42502
G1 X96.656 Y69.903 E88.97383
M73 Q2 S70
G1 X97.118 Y69.903 E88.99453
G1 X121.555 Y94.341 E90.54334
G1 X122.017 Y94.341 E90.56404
G1 X97.580 Y69.903 E92.11284
G1 X98.041 Y69.903 E92.13355
G1 X122.479 Y94.341 E93.68235
G1 X122.941 Y94.341 E93.70305
G1 X98.503 Y69.903 E95.25186
G1 X98.965 Y69.903 E95.27256
G1 X123.403 Y94.341 E96.82137
G1 X123.865 Y94.341 E96.84207
G1 X99.427 Y69.903 E98.39088
G1 X99.889 Y69.903 E98.41158
G1 X124.327 Y94.341 E99.96039
G1 X124.789 Y94.341 E99.98109
G1 X100.351 Y69.903 E101.52990
G1 X100.813 Y69.903 E101.55060
G1 X125.251 Y94.341 E103.09941
G1 X125.713 Y94.341 E103.12011
G1 X101.275 Y69.903 E104.66892
G1 X101.737 Y69.903 E104.68962
G1 X126.175 Y94.341 E106.23842
G1 X126.637 Y94.341 E106.25913
G1 X102.199 Y69.903 E107.80793
G1 X102.661 Y69.903 E107.82864
G1 X127.099 Y94.341 E109.37744
G1 X127.561 Y94.341 E109.39814
G1 X103.123 Y69.903 E110.94695
G1 X103.585 Y69.903 E110.96765
G1 X128.023 Y94.341 E112.51646
G1 X128.484 Y94.341 E112.53716
G1 X104.047 Y69.903 E114.08597
G1 X104.509 Y69.903 E114.10667
G1 X128.946 Y94.341 E115.65548
G1 X129.408 Y94.341 E115.67618
G1 X104.971 Y69.903 E117.22499
G1 X105.433 Y69.903 E117.24569
G1 X129.870 Y94.341 E118.79450
G1 X130.332 Y94.341 E118.81520
G1 X105.894 Y69.903 E120.36400
G1 X106.356 Y69.903 E120.38471
G1 X130.794 Y94.341 E121.93351
G1 X131.256 Y94.341 E121.95422
G1 X106.818 Y69.903 E123.50302
G1 X107.280 Y69.903 E123.52372
G1 X131.718 Y94.341 E125.07253
G1 X132.180 Y94.341 E125.09323
G1 X107.742 Y69.903 E126.64204
G1 X108.204 Y69.903 E126.66274
G1 X132.642 Y94.341 E128.21155
G1 X133.104 Y94.341 E128.23225
G1 X108.666 Y69.903 E129.78106
G1 X109.128 Y69.903 E129.80176
G1 X133.566 Y94.341 E131.35057
G1 X134.028 Y94.341 E131.37127
G1 X109.590 Y69.903 E132.92008
G1 X110.052 Y69.903 E132.94078
G1 X134.490 Y94.341 E134.48958
G1 X134.952 Y94.341 E134.51029
G1 X110.514 Y69.903 E136.05909
G1 X110.976 Y69.903 E136.07980
G1 X135.414 Y94.341 E137.62860
G1 X135.876 Y94.341 E137.64930
G1 X111.438 Y69.903 E139.19811
G1 X111.900 Y69.903 E139.21881
G1 X136.338 Y94.341 E140.76762
G1 X136.799 Y94.341 E140.78832
G1 X112.362 Y69.903 E142.33713
G1 X112.824 Y69.903 E142.35783
G1 X137.261 Y94.341 E143.90664
G1 X137.723 Y94.341 E143.92734
G1 X113.286 Y69.903 E145.47615
G1 X113.747 Y69.903 E145.49685
G1 X138.185 Y94.341 E147.04566
G1 X138.647 Y94.341 E147.06636
G1 X114.209 Y69.903 E148.61517
G1 X114.671 Y69.903 E148.63587
G1 X139.109 Y94.341 E150.18467
G1 X139.571 Y94.341 E150.20538
G1 X115.133 Y69.903 E151.75418
G1 X115.595 Y69.903 E151.77489
G1 X140.033 Y94.341 E153.32369
G1 X140.495 Y94.341 E153.34439
G1 X116.057 Y69.903 E154.89320
G1 X116.519 Y69.903 E154.91390
G1 X140.957 Y94.341 E156.46271
G1 X141.419 Y94.341 E156.48341
G1 X116.981 Y69.903 E158.03222
G1 X117.443 Y69.903 E158.05292
G1 X141.881 Y94.341 E159.60173
M73 P4 R72
G1 X142.343 Y94.341 E159.62243
G1 X117.905 Y69.903 E161.17124
G1 X118.367 Y69.903 E161.19194
G1 X142.805 Y94.341 E162.74075
G1 X143.267 Y94.341 E162.76145
G1 X118.829 Y69.903 E164.31025
M73 Q4 S69
G1 X119.291 Y69.903 E164.33096
G1 X143.729 Y94.341 E165.87976
G1 X144.191 Y94.341 E165.90047
G1 X119.753 Y69.903 E167.44927
G1 X120.215 Y69.903 E167.46997
G1 X144.652 Y94.341 E169.01878
G1 X145.114 Y94.341 E169.03948
G1 X120.677 Y69.903 E170.58829
G1 X121.139 Y69.903 E170.60899
G1 X145.576 Y94.341 E172.15780
G1 X146.038 Y94.341 E172.17850
G1 X121.600 Y69.903 E173.72731
G1 X122.062 Y69.903 E173.74801
G1 X146.292 Y94.133 E175.28363
G1 X146.447 Y93.978 E175.29343
G1 X146.447 Y93.825 E175.30028
G1 X122.524 Y69.903 E176.81642
G1 X122.986 Y69.903 E176.83712
G1 X146.447 Y93.363 E178.32398
G1 X146.447 Y92.901 E178.34468
G1 X123.448 Y69.903 E179.80227
G1 X123.910 Y69.903 E179.82297
G1 X146.447 Y92.439 E181.25128
G1 X146.447 Y91.977 E181.27198
G1 X124.372 Y69.903 E182.67101
G1 X124.834 Y69.903 E182.69171
G1 X146.447 Y91.515 E184.06147
G1 X146.447 Y91.054 E184.08217
G1 X125.296 Y69.903 E185.42265
G1 X125.758 Y69.903 E185.44335
G1 X146.447 Y90.592 E186.75455
G1 X146.447 Y90.130 E186.77526
G1 X126.220 Y69.903 E188.05718
G1 X126.682 Y69.903 E188.07788
G1 X146.447 Y89.668 E189.33053
G1 X146.447 Y89.206 E189.35123
G1 X127.144 Y69.903 E190.57461
G1 X127.606 Y69.903 E190.59531
G1 X146.447 Y88.744 E191.78940
G1 X146.447 Y88.282 E191.81010
G1 X128.068 Y69.903 E192.97492
G1 X128.530 Y69.903 E192.99562
G1 X146.447 Y87.820 E194.13117
G1 X146.447 Y87.358 E194.15187
G1 X128.992 Y69.903 E195.25813
